symbolic/24x24/places/folder-cyan-steam.svg

<svg xmlns="http://www.w3.org/2000/svg" width="24" height="24" version="1"><rect style="opacity:.2" width="20" height="12" x="2" y="9.5" rx="1" ry="1"/><path style="fill:#0096aa" d="M2 17c0 .554.446 1 1 1h18c.554 0 1-.446 1-1V6c0-.554-.446-1-1-1h-9c-1.5 0-2-2-3.5-2H3c-.554 0-1 .446-1 1"/><rect style="opacity:.2" width="20" height="12" x="2" y="8.5" rx="1" ry="1"/><rect style="fill:#e4e4e4" width="16" height="8" x="4" y="7" rx="1" ry="1"/><rect style="fill:#00bcd4" width="20" height="12" x="2" y="9" rx="1" ry="1"/><path style="opacity:.1;fill:#fff" d="M3 3c-.554 0-1 .446-1 1v.5c0-.554.446-1 1-1h5.5c1.5 0 2 2 3.5 2h9c.554 0 1 .446 1 1V6c0-.554-.446-1-1-1h-9c-1.5 0-2-2-3.5-2z"/><path style="fill:#00424a" d="m5 15.255 3.05 1.761A2.5 2.5 0 0 0 8 17.5a2.5 2.5 0 1 0 4.978-.314l2.598-2.219c.14.021.282.032.424.033a3 3 0 1 0-2.99-3.234l-2.098 3.269a2.473 2.473 0 0 0-1.713.334L5 12.945M16 10a2 2 0 1 1 .001 3.999A2 2 0 0 1 16 10zm0 1a1 1 0 1 0 0 2 1 1 0 0 0 0-2zm-5.539 5h.039a1.5 1.5 0 1 1-1.498 1.566l.498.288c.495.286 1.117.13 1.394-.35.277-.48.101-1.097-.394-1.383l-.188-.107c.049-.007.099-.012.149-.014z"/></svg>

<svg xmlns="http://www.w3.org/2000/svg" width="24" height="24" version="1">
 <rect style="opacity:0.2" width="20" height="12" x="2" y="9.5" rx="1" ry="1"/>
 <path style="fill:#0096aa" d="M 2,17 C 2,17.554 2.446,18 3,18 H 21 C 21.554,18 22,17.554 22,17 V 6 C 22,5.446 21.554,5 21,5 H 12 C 10.5,5 10,3 8.5,3 H 3 C 2.446,3 2,3.446 2,4"/>
 <rect style="opacity:0.2" width="20" height="12" x="2" y="8.5" rx="1" ry="1"/>
 <rect style="fill:#e4e4e4" width="16" height="8" x="4" y="7" rx="1" ry="1"/>
 <rect style="fill:#00bcd4" width="20" height="12" x="2" y="9" rx="1" ry="1"/>
 <path style="opacity:0.1;fill:#ffffff" d="M 3,3 C 2.446,3 2,3.446 2,4 V 4.5 C 2,3.946 2.446,3.5 3,3.5 H 8.5 C 10,3.5 10.5,5.5 12,5.5 H 21 C 21.554,5.5 22,5.946 22,6.5 V 6 C 22,5.446 21.554,5 21,5 H 12 C 10.5,5 10,3 8.5,3 Z"/>
 <path style="fill:#00424a" d="M 5,15.255 8.0507,17.016 C 8.0181,17.175 8.0011,17.337 7.9999,17.5 7.9999,18.881 9.1192,20 10.5,20 11.881,20 13,18.881 13,17.5 12.999,17.395 12.992,17.29 12.978,17.186 L 15.576,14.967 C 15.716,14.988 15.858,14.999 16,15 17.657,15 19,13.657 19,12 19,10.343 17.657,9 16,9 14.434,9.0004 13.132,10.205 13.01,11.766 L 10.912,15.035 C 10.776,15.012 10.638,15 10.5,15 10.041,15.001 9.5906,15.129 9.1991,15.369 L 5,12.945 M 16,10 C 17.105,10 18,10.895 18,12 18,13.105 17.105,14 16,14 14.895,14 14,13.105 14,12 14,10.895 14.895,10 16,10 Z M 16,11 C 15.448,11 15,11.448 15,12 15,12.552 15.448,13 16,13 16.552,13 17,12.552 17,12 17,11.448 16.552,11 16,11 Z M 10.461,16 C 10.474,16 10.487,16 10.5,16 11.328,16 12,16.672 12,17.5 12,18.328 11.328,19 10.5,19 9.6974,19 9.0371,18.368 9.0018,17.566 L 9.4999,17.854 C 9.9954,18.14 10.617,17.984 10.894,17.504 11.171,17.024 10.995,16.407 10.5,16.121 L 10.312,16.014 C 10.361,16.007 10.411,16.002 10.461,16 Z"/>
</svg>
